;FLAVOR:UltiGCode
;TIME:7526      
;MATERIAL:5555      
;MATERIAL2:0         

;Layer count: 198
;LAYER:0
M107
G0 F12000 X102.50 Y101.24 Z0.30
;TYPE:SKIRT
G1 F1200 X103.75 Y100.01 E0.21054
G1 X104.08 Y99.70 E0.26519
G1 X104.60 Y99.31 E0.34372
G1 X104.61 Y99.30 E0.34512
G1 X105.53 Y98.61 E0.48241
G1 X105.72 Y98.47 E0.51190
G1 X105.75 Y98.44 E0.51663
G1 X105.82 Y98.39 E0.52711
G1 X105.89 Y98.34 E0.53697
G1 X105.93 Y98.33 E0.54166
G1 X106.02 Y98.28 E0.55391
G1 X107.17 Y97.63 E0.71328
G1 X107.18 Y97.63 E0.71388
G1 X107.73 Y97.33 E0.78942
G1 X109.17 Y96.75 E0.97535
G1 X109.80 Y96.50 E1.05738
G1 X111.90 Y95.96 E1.31766
G1 X112.59 Y95.88 E1.40033
G1 X112.59 Y95.87 E1.40177
G1 X113.67 Y95.75 E1.53126
G1 X113.99 Y95.71 E1.57065
G1 X114.03 Y95.69 E1.57485
G1 X114.10 Y95.69 E1.58385
G1 X114.19 Y95.68 E1.59473
G1 X114.23 Y95.69 E1.59936
G1 X114.66 Y95.70 E1.65109
G1 X116.10 Y95.72 E1.82378
G1 X116.36 Y95.73 E1.85548
G1 X118.47 Y96.03 E2.11094
G1 X120.58 Y96.62 E2.37449
G1 X121.24 Y96.90 E2.45993
G1 X121.24 Y96.90 E2.46029
G1 X121.69 Y97.10 E2.51920
G1 X122.52 Y97.45 E2.62710
G1 X122.56 Y97.45 E2.63157
G1 X122.62 Y97.50 E2.64104
G1 X122.71 Y97.53 E2.65254
G1 X122.74 Y97.57 E2.65797
G1 X122.94 Y97.69 E2.68606
G1 X123.96 Y98.28 E2.82718
G1 X123.96 Y98.29 E2.82783
G1 X124.50 Y98.61 E2.90418
G1 X126.23 Y99.97 E3.16776
G1 X127.77 Y101.54 E3.43193
G1 X128.19 Y102.10 E3.51559
G1 X128.21 Y102.11 E3.51737
G1 X128.85 Y102.98 E3.64719
G1 X129.03 Y103.22 E3.68439
G1 X129.06 Y103.25 E3.68886
G1 X129.10 Y103.32 E3.69847
G1 X129.16 Y103.39 E3.70884
G1 X129.16 Y103.42 E3.71364
G1 X129.87 Y104.67 E3.88553
G1 X129.87 Y104.68 E3.88601
G1 X130.18 Y105.23 E3.96155
G1 X130.99 Y107.27 E4.22545
G1 X131.54 Y109.40 E4.48955
G1 X131.62 Y110.09 E4.57259
G1 X131.63 Y110.09 E4.57396
G1 X131.75 Y111.14 E4.70006
G1 X131.79 Y111.49 E4.74296
G1 X131.81 Y111.53 E4.74704
G1 X131.81 Y111.60 E4.75604
G1 X131.82 Y111.69 E4.76692
G1 X131.81 Y111.73 E4.77155
G1 X131.80 Y112.15 E4.82268
G1 X131.78 Y113.60 E4.99597
G1 X131.77 Y113.86 E5.02767
G1 X131.47 Y115.97 E5.28313
G1 X130.88 Y118.08 E5.54669
G1 X130.60 Y118.74 E5.63212
G1 X130.60 Y118.74 E5.63248
G1 X130.41 Y119.18 E5.68946
G1 X130.05 Y120.02 E5.79930
G1 X130.04 Y120.06 E5.80376
G1 X130.00 Y120.12 E5.81323
G1 X129.97 Y120.21 E5.82473
G1 X129.93 Y120.24 E5.83017
G1 X129.75 Y120.56 E5.87456
G1 X129.22 Y121.46 E5.99938
G1 X129.21 Y121.46 E5.99991
G1 X128.89 Y122.00 E6.07616
G1 X127.93 Y123.22 E6.26223
G1 X127.50 Y123.76 E6.34433
G1 X126.25 Y124.99 E6.55487
G1 X125.92 Y125.30 E6.60953
G1 X125.40 Y125.69 E6.68805
G1 X125.39 Y125.70 E6.68946
G1 X124.48 Y126.38 E6.82501
G1 X124.28 Y126.53 E6.85624
G1 X124.25 Y126.56 E6.86097
G1 X124.18 Y126.61 E6.87144
G1 X124.11 Y126.66 E6.88131
G1 X124.07 Y126.67 E6.88588
G1 X122.83 Y127.37 E7.05760
G1 X122.82 Y127.37 E7.05820
G1 X122.27 Y127.67 E7.13374
G1 X120.83 Y128.25 E7.31967
G1 X120.20 Y128.50 E7.40181
G1 X118.46 Y128.95 E7.61686
G1 X118.06 Y129.05 E7.66611
G1 X117.41 Y129.12 E7.74479
G1 X117.41 Y129.13 E7.74599
G1 X116.20 Y129.27 E7.89165
G1 X116.01 Y129.29 E7.91450
G1 X115.97 Y129.31 E7.91907
G1 X115.89 Y129.31 E7.92915
G1 X115.81 Y129.31 E7.93930
G1 X115.77 Y129.31 E7.94355
G1 X115.34 Y129.30 E7.99528
G1 X113.90 Y129.28 E8.16797
G1 X113.64 Y129.27 E8.19979
G1 X111.55 Y128.97 E8.45296
G1 X109.77 Y128.47 E8.67444
G1 X109.37 Y128.36 E8.72430
G1 X108.76 Y128.10 E8.80429
G1 X108.76 Y128.10 E8.80441
G1 X108.39 Y127.94 E8.85209
G1 X107.48 Y127.55 E8.97101
G1 X107.44 Y127.55 E8.97572
G1 X107.37 Y127.50 E8.98605
G1 X107.29 Y127.47 E8.99701
G1 X107.26 Y127.43 E9.00211
G1 X106.97 Y127.26 E9.04236
G1 X106.04 Y126.72 E9.17132
G1 X106.04 Y126.71 E9.17196
G1 X105.50 Y126.39 E9.24832
G1 X103.78 Y125.04 E9.50976
G1 X102.49 Y123.72 E9.73158
G1 X102.20 Y123.42 E9.78165
G1 X101.81 Y122.90 E9.86001
G1 X101.80 Y122.89 E9.86142
G1 X101.11 Y121.97 E9.99913
G1 X100.97 Y121.78 E10.02819
G1 X100.94 Y121.75 E10.03292
G1 X100.89 Y121.68 E10.04340
G1 X100.84 Y121.61 E10.05327
G1 X100.83 Y121.57 E10.05795
G1 X100.77 Y121.46 E10.07407
G1 X100.13 Y120.33 E10.22957
G1 X100.13 Y120.32 E10.23005
G1 X99.83 Y119.77 E10.30559
G1 X99.01 Y117.75 E10.56740
G1 X98.56 Y116.01 E10.78339
G1 X98.45 Y115.56 E10.83842
G1 X98.38 Y114.91 E10.91685
G1 X98.37 Y114.91 E10.91795
G1 X98.23 Y113.73 E11.06036
G1 X98.21 Y113.51 E11.08647
G1 X98.19 Y113.47 E11.09104
G1 X98.19 Y113.39 E11.10112
G1 X98.19 Y113.31 E11.11127
G1 X98.19 Y113.27 E11.11552
G1 X98.21 Y112.52 E11.20577
G1 X98.22 Y111.40 E11.33994
G1 X98.23 Y111.14 E11.37164
G1 X98.44 Y109.67 E11.54963
G1 X98.54 Y109.00 E11.63126
G1 X99.02 Y107.31 E11.84157
G1 X99.14 Y106.87 E11.89615
G1 X99.95 Y104.98 E12.14301
G1 X99.95 Y104.94 E12.14771
G1 X100.00 Y104.87 E12.15804
G1 X100.03 Y104.79 E12.16901
G1 X100.07 Y104.76 E12.17410
G1 X100.25 Y104.44 E12.21850
G1 X100.78 Y103.54 E12.34331
G1 X100.79 Y103.54 E12.34385
G1 X101.11 Y103.00 E12.42010
G1 X102.07 Y101.78 E12.60617
G1 X102.50 Y101.24 E12.68827
G0 F12000 X102.79 Y101.51
G1 F1200 X104.03 Y100.30 E12.89558
G1 X104.34 Y100.00 E12.94710
G1 X104.93 Y99.56 E13.03635
G1 X104.94 Y99.55 E13.03749
G1 X105.75 Y98.94 E13.15932
G1 X106.01 Y98.75 E13.19781
G1 X106.02 Y98.74 E13.19945
G1 X106.04 Y98.73 E13.20305
G1 X106.06 Y98.71 E13.20571
G1 X106.07 Y98.71 E13.20694
G1 X106.22 Y98.63 E13.22730
G1 X107.27 Y98.04 E13.37178
G1 X107.27 Y98.04 E13.37214
G1 X107.90 Y97.69 E13.45853
G1 X109.31 Y97.12 E13.64119
G1 X109.92 Y96.88 E13.72014
G1 X111.97 Y96.35 E13.97411
G1 X112.75 Y96.26 E14.06730
G1 X112.75 Y96.25 E14.06866
G1 X113.73 Y96.14 E14.18655
G1 X114.10 Y96.10 E14.23103
G1 X114.11 Y96.09 E14.23183
G1 X114.12 Y96.09 E14.23351
G1 X114.15 Y96.09 E14.23774
G1 X114.17 Y96.09 E14.23911
G1 X114.65 Y96.10 E14.29744
G1 X116.09 Y96.12 E14.46977
G1 X116.33 Y96.13 E14.49835
G1 X118.39 Y96.43 E14.74812
G1 X120.45 Y97.00 E15.00545
G1 X121.18 Y97.32 E15.10115
G1 X121.19 Y97.32 E15.10151
G1 X121.62 Y97.50 E15.15871
G1 X122.42 Y97.84 E15.26226
G1 X122.43 Y97.84 E15.26311
G1 X122.44 Y97.85 E15.26505
G1 X122.48 Y97.87 E15.26988
G1 X122.49 Y97.88 E15.27218
G1 X122.71 Y98.01 E15.30344
G1 X123.65 Y98.57 E15.43455
G1 X123.66 Y98.58 E15.43509
G1 X124.28 Y98.94 E15.52194
G1 X125.97 Y100.27 E15.77938
G1 X127.47 Y101.81 E16.03734
G1 X127.94 Y102.43 E16.13128
G1 X127.95 Y102.44 E16.13284
G1 X128.52 Y103.21 E16.24790
G1 X128.75 Y103.51 E16.29357
G1 X128.76 Y103.52 E16.29477
G1 X128.77 Y103.54 E16.29751
G1 X128.78 Y103.56 E16.30068
G1 X128.79 Y103.57 E16.30228
G1 X129.46 Y104.77 E16.46712
G1 X129.46 Y104.77 E16.46760
G1 X129.81 Y105.40 E16.55383
G1 X130.61 Y107.39 E16.81143
G1 X131.15 Y109.47 E17.06921
G1 X131.24 Y110.25 E17.16276
G1 X131.25 Y110.25 E17.16403
G1 X131.36 Y111.22 E17.28095
G1 X131.40 Y111.60 E17.32640
G1 X131.41 Y111.61 E17.32720
G1 X131.41 Y111.62 E17.32888
G1 X131.41 Y111.65 E17.33311
G1 X131.41 Y111.67 E17.33448
G1 X131.40 Y111.97 E17.37084
G1 X131.38 Y113.59 E17.56514
G1 X131.37 Y113.83 E17.59372
G1 X131.07 Y115.89 E17.84349
G1 X130.50 Y117.95 E18.10081
G1 X130.18 Y118.68 E18.19652
G1 X130.18 Y118.69 E18.19688
G1 X130.00 Y119.12 E18.25408
G1 X129.66 Y119.92 E18.35763
G1 X129.66 Y119.93 E18.35848
G1 X129.65 Y119.94 E18.36042
G1 X129.63 Y119.98 E18.36525
G1 X129.62 Y119.99 E18.36755
G1 X129.49 Y120.21 E18.39881
G1 X128.93 Y121.15 E18.52992
G1 X128.93 Y121.16 E18.53046
G1 X128.56 Y121.78 E18.61731
G1 X127.61 Y122.98 E18.80013
G1 X127.21 Y123.49 E18.87898
G1 X125.97 Y124.70 E19.08629
G1 X125.66 Y125.00 E19.13780
G1 X125.07 Y125.44 E19.22706
G1 X125.06 Y125.45 E19.22819
G1 X124.27 Y126.04 E19.34669
G1 X123.99 Y126.25 E19.38852
G1 X123.98 Y126.26 E19.39015
G1 X123.96 Y126.27 E19.39375
G1 X123.94 Y126.29 E19.39642
G1 X123.93 Y126.29 E19.39778
G1 X122.73 Y126.96 E19.56247
G1 X122.73 Y126.96 E19.56283
G1 X122.10 Y127.31 E19.64922
G1 X120.69 Y127.88 E19.83187
G1 X120.08 Y128.12 E19.91094
G1 X118.36 Y128.56 E20.12279
G1 X117.99 Y128.65 E20.16892
G1 X117.25 Y128.74 E20.25822
G1 X117.25 Y128.75 E20.25933
G1 X116.15 Y128.87 E20.39208
G1 X115.91 Y128.90 E20.42120
G1 X115.89 Y128.91 E20.42250
G1 X115.87 Y128.91 E20.42526
G1 X115.84 Y128.91 E20.42864
G1 X115.84 Y128.91 E20.42951
G1 X115.35 Y128.90 E20.48808
G1 X113.91 Y128.88 E20.66041
G1 X113.67 Y128.87 E20.68911
G1 X111.63 Y128.58 E20.93657
G1 X109.88 Y128.09 E21.15482
G1 X109.51 Y127.98 E21.20142
G1 X108.81 Y127.68 E21.29200
G1 X108.81 Y127.68 E21.29212
G1 X108.48 Y127.54 E21.33496
G1 X107.59 Y127.16 E21.45232
G1 X107.57 Y127.16 E21.45377
G1 X107.55 Y127.14 E21.45683
G1 X107.52 Y127.13 E21.46076
G1 X107.51 Y127.12 E21.46254
G1 X107.25 Y126.96 E21.49967
G1 X106.35 Y126.43 E21.62518
G1 X106.34 Y126.42 E21.62572
G1 X105.72 Y126.05 E21.71273
G1 X104.05 Y124.74 E21.96794
G1 X102.77 Y123.44 E22.18636
G1 X102.50 Y123.16 E22.23312
G1 X102.06 Y122.57 E22.32219
G1 X102.05 Y122.56 E22.32337
G1 X101.45 Y121.75 E22.44452
G1 X101.25 Y121.49 E22.48369
G1 X101.24 Y121.48 E22.48532
G1 X101.23 Y121.46 E22.48893
G1 X101.21 Y121.44 E22.49159
G1 X101.21 Y121.43 E22.49281
G1 X101.06 Y121.15 E22.53053
G1 X100.54 Y120.23 E22.65766
G1 X100.54 Y120.23 E22.65814
G1 X100.19 Y119.60 E22.74437
G1 X99.39 Y117.62 E22.99976
G1 X98.95 Y115.91 E23.21251
G1 X98.85 Y115.49 E23.26435
G1 X98.76 Y114.75 E23.35342
G1 X98.75 Y114.75 E23.35445
G1 X98.61 Y113.53 E23.50145
G1 X98.60 Y113.41 E23.51632
G1 X98.59 Y113.39 E23.51761
G1 X98.59 Y113.37 E23.52037
G1 X98.59 Y113.34 E23.52375
G1 X98.59 Y113.34 E23.52463
G1 X98.61 Y112.59 E23.61368
G1 X98.62 Y111.41 E23.75553
G1 X98.63 Y111.17 E23.78411
G1 X98.84 Y109.73 E23.95943
G1 X98.93 Y109.08 E24.03790
G1 X99.40 Y107.42 E24.24510
G1 X99.52 Y107.01 E24.29645
G1 X99.82 Y106.31 E24.38714
G1 X99.82 Y106.31 E24.38726
G1 X100.01 Y105.87 E24.44553
G1 X100.34 Y105.09 E24.54746
G1 X100.34 Y105.07 E24.54891
G1 X100.36 Y105.05 E24.55197
G1 X100.37 Y105.02 E24.55590
G1 X100.38 Y105.01 E24.55768
G1 X100.52 Y104.77 E24.59157
G1 X101.07 Y103.85 E24.72032
G1 X101.08 Y103.84 E24.72086
G1 X101.44 Y103.22 E24.80771
G1 X102.39 Y102.02 E24.99053
G1 X102.79 Y101.51 E25.06938
G10
G0 F12000 X105.62 Y104.05
;TYPE:WALL-INNER
G11
G1 F1200 X106.67 Y103.03 E25.24504
G1 X106.81 Y102.90 E25.26719
G1 X107.70 Y102.23 E25.40118
G1 X107.99 Y102.17 E25.43727
G1 X108.08 Y101.95 E25.46475
G1 X108.18 Y101.89 E25.47986
G1 X108.42 Y101.90 E25.50785
G1 X108.59 Y101.66 E25.54381
G1 X109.54 Y101.12 E25.67458
G1 X110.72 Y100.65 E25.82725
G1 X111.10 Y100.50 E25.87598
G1 X112.67 Y100.10 E26.07002
G1 X113.81 Y99.96 E26.20853
G1 X114.10 Y100.05 E26.24441
G1 X114.28 Y99.90 E26.27190
G1 X114.34 Y99.90 E26.27890
G1 X114.40 Y99.90 E26.28694
G1 X114.60 Y100.02 E26.31477
G1 X114.87 Y99.91 E26.35046
G1 X115.98 Y99.92 E26.48367
G1 X117.60 Y100.15 E26.67935
G1 X119.19 Y100.60 E26.87787
G1 X120.24 Y101.05 E27.01486
G1 X120.44 Y101.26 E27.05052
G1 X120.67 Y101.23 E27.07816
G1 X120.78 Y101.29 E27.09335
G1 X120.89 Y101.50 E27.12148
G1 X121.19 Y101.53 E27.15710
G1 X122.13 Y102.09 E27.28877
G1 X123.42 Y103.10 E27.48569
G1 X124.58 Y104.29 E27.68476
G1 X125.27 Y105.20 E27.82180
G1 X125.33 Y105.49 E27.85766
G1 X125.55 Y105.58 E27.88514
G1 X125.61 Y105.68 E27.90025
G1 X125.60 Y105.92 E27.92824
G1 X125.84 Y106.09 E27.96420
G1 X126.38 Y107.04 E28.09508
G1 X126.99 Y108.58 E28.29329
G1 X127.40 Y110.17 E28.49073
G1 X127.54 Y111.31 E28.62889
G1 X127.45 Y111.60 E28.66476
G1 X127.60 Y111.78 E28.69226
G1 X127.60 Y111.84 E28.69925
G1 X127.60 Y111.90 E28.70729
G1 X127.48 Y112.10 E28.73513
G1 X127.59 Y112.37 E28.77081
G1 X127.58 Y113.48 E28.90402
G1 X127.35 Y115.10 E29.09971
G1 X126.90 Y116.69 E29.29822
G1 X126.45 Y117.74 E29.43521
G1 X126.24 Y117.94 E29.47088
G1 X126.27 Y118.17 E29.49852
G1 X126.21 Y118.28 E29.51371
G1 X126.00 Y118.39 E29.54183
G1 X125.97 Y118.69 E29.57745
G1 X125.41 Y119.63 E29.70912
G1 X124.63 Y120.62 E29.86101
G1 X124.38 Y120.95 E29.91022
G1 X123.33 Y121.97 E30.08588
G1 X123.19 Y122.10 E30.10803
G1 X122.30 Y122.77 E30.24202
G1 X122.01 Y122.83 E30.27812
G1 X121.92 Y123.05 E30.30559
G1 X121.82 Y123.11 E30.32071
G1 X121.58 Y123.10 E30.34870
G1 X121.41 Y123.34 E30.38465
G1 X120.46 Y123.88 E30.51543
G1 X119.28 Y124.35 E30.66809
G1 X118.91 Y124.50 E30.71591
G1 X117.43 Y124.87 E30.89840
G1 X117.30 Y124.91 E30.91461
G1 X116.19 Y125.04 E31.04924
G1 X115.90 Y124.95 E31.08522
G1 X115.72 Y125.10 E31.11272
G1 X115.66 Y125.10 E31.11971
G1 X115.60 Y125.10 E31.12775
G1 X115.40 Y124.98 E31.15559
G1 X115.13 Y125.09 E31.19128
G1 X114.02 Y125.08 E31.32448
G1 X112.42 Y124.85 E31.51849
G1 X110.92 Y124.43 E31.70532
G1 X110.79 Y124.40 E31.72066
G1 X109.76 Y123.95 E31.85565
G1 X109.56 Y123.74 E31.89132
G1 X109.33 Y123.77 E31.91896
G1 X109.22 Y123.71 E31.93415
G1 X109.11 Y123.50 E31.96227
G1 X108.81 Y123.47 E31.99789
G1 X107.87 Y122.91 E32.12956
G1 X106.59 Y121.90 E32.32538
G1 X105.50 Y120.80 E32.51138
G1 X105.40 Y120.69 E32.52904
G1 X104.73 Y119.80 E32.66243
G1 X104.67 Y119.51 E32.69853
G1 X104.45 Y119.42 E32.72600
G1 X104.39 Y119.32 E32.74111
G1 X104.40 Y119.08 E32.76911
G1 X104.16 Y118.91 E32.80506
G1 X103.62 Y117.96 E32.93594
G1 X103.01 Y116.44 E33.13232
G1 X102.64 Y114.97 E33.31385
G1 X102.59 Y114.80 E33.33486
G1 X102.46 Y113.69 E33.46961
G1 X102.55 Y113.40 E33.50560
G1 X102.40 Y113.22 E33.53309
G1 X102.40 Y113.16 E33.54009
G1 X102.40 Y113.10 E33.54813
G1 X102.52 Y112.90 E33.57596
G1 X102.41 Y112.63 E33.61165
G1 X102.42 Y111.51 E33.74534
G1 X102.60 Y110.28 E33.89485
G1 X102.66 Y109.88 E33.94386
G1 X103.06 Y108.46 E34.12037
G1 X103.10 Y108.29 E34.14107
G1 X103.55 Y107.26 E34.27606
G1 X103.76 Y107.06 E34.31172
G1 X103.73 Y106.83 E34.33937
G1 X103.79 Y106.72 E34.35456
G1 X104.00 Y106.61 E34.38268
G1 X104.03 Y106.31 E34.41830
G1 X104.59 Y105.37 E34.54997
G1 X105.37 Y104.38 E34.70186
G1 X105.62 Y104.05 E34.75107
G0 F12000 X110.69 Y108.92
G1 F1200 X110.28 Y109.49 E34.83441
G1 X110.09 Y109.81 E34.87977
G1 X109.80 Y110.43 E34.96211
G1 X109.58 Y111.10 E35.04643
G1 X109.45 Y111.78 E35.12977
G1 X109.40 Y112.50 E35.21611
G1 X109.41 Y112.86 E35.25920
G1 X109.50 Y113.54 E35.34181
G1 X109.67 Y114.22 E35.42627
G1 X109.93 Y114.88 E35.51053
G1 X110.27 Y115.50 E35.59522
G1 X110.67 Y116.06 E35.67839
G1 X110.92 Y116.34 E35.72362
G1 X111.42 Y116.81 E35.80605
G1 X111.99 Y117.22 E35.88939
G1 X112.31 Y117.41 E35.93475
G1 X112.93 Y117.70 E36.01709
G1 X113.60 Y117.92 E36.10141
G1 X114.28 Y118.05 E36.18475
G1 X115.00 Y118.10 E36.27109
G1 X115.36 Y118.09 E36.31418
G1 X116.04 Y118.00 E36.39679
G1 X116.72 Y117.83 E36.48026
G1 X117.07 Y117.70 E36.52494
G1 X117.40 Y117.56 E36.56816
G1 X117.99 Y117.23 E36.64986
G1 X118.29 Y117.03 E36.69306
G1 X118.58 Y116.81 E36.73650
G1 X119.08 Y116.34 E36.81859
G1 X119.54 Y115.78 E36.90543
G1 X119.91 Y115.20 E36.98866
G1 X120.21 Y114.56 E37.07299
G1 X120.42 Y113.90 E37.15614
G1 X120.56 Y113.20 E37.24169
G1 X120.59 Y112.85 E37.28411
G1 X120.60 Y112.50 E37.32673
G1 X120.59 Y112.14 E37.36887
G1 X120.56 Y111.79 E37.41178
G1 X120.42 Y111.11 E37.49500
G1 X120.21 Y110.44 E37.57928
G1 X119.91 Y109.81 E37.66254
G1 X119.53 Y109.21 E37.74804
G1 X119.31 Y108.92 E37.79148
G1 X118.84 Y108.42 E37.87357
G1 X118.28 Y107.96 E37.96041
G1 X117.70 Y107.59 E38.04364
G1 X117.06 Y107.29 E38.12797
G1 X116.40 Y107.08 E38.21112
G1 X115.70 Y106.94 E38.29667
G1 X115.35 Y106.91 E38.33909
G1 X115.00 Y106.90 E38.38171
G1 X114.64 Y106.91 E38.42384
G1 X114.29 Y106.94 E38.46676
G1 X113.61 Y107.08 E38.54998
G1 X112.94 Y107.29 E38.63350
G1 X112.31 Y107.59 E38.71778
G1 X111.71 Y107.96 E38.80218
G1 X111.17 Y108.41 E38.88664
G1 X110.69 Y108.92 E38.97102
G0 F12000 X111.00 Y109.18
;TYPE:WALL-OUTER
G1 F1200 X110.62 Y109.71 E39.04903
G1 X110.44 Y110.00 E39.08982
G1 X110.17 Y110.58 E39.16696
G1 X109.97 Y111.20 E39.24536
G1 X109.84 Y111.84 E39.32333
G1 X109.81 Y112.17 E39.36372
G1 X109.80 Y112.50 E39.40286
G1 X109.81 Y112.83 E39.44223
G1 X109.89 Y113.47 E39.51953
G1 X110.05 Y114.10 E39.59802
G1 X110.29 Y114.71 E39.67624
G1 X110.61 Y115.28 E39.75481
G1 X110.99 Y115.81 E39.83275
G1 X111.21 Y116.06 E39.87338
G1 X111.68 Y116.50 E39.95055
G1 X112.21 Y116.88 E40.02856
G1 X112.50 Y117.06 E40.06935
G1 X113.08 Y117.33 E40.14649
G1 X113.70 Y117.53 E40.22489
G1 X114.34 Y117.66 E40.30286
G1 X114.67 Y117.69 E40.34326
